X:77
T:Never Mind It. HSJJ.079
M:2/4
L:1/8
Q:1/4=120
S:HSJ Jackson,Wyresdale,Lancs.1823
R:.Country-dance
O:England
A:Lancashire
H:1823
Z:vmp.Chris Partington.
K:G
GBBB|dcA2|FAAA|B2G2|GBBB|dcA2|FAAA|G2″^fine”G2:|!
|dggg|^dec2|Addd|^ABG2|dgfg|b2ag|fed^c|d2d2|]

